X:12
T:Mrs. Crowley's
O:Trad. (29.11.2013/NS)
M:2/4
L:1/8
R:polka
K:Gmaj
|: "G"DG EG/E/ | DG EG/E/ | DG AG/A/ | "D"BA A2 |
"G"DG EG/E/ | DG EG/E/ | DG "D"AG/A/ | "G"BG G2 :|
|: "G"dB gB | "Am"dB gB | "G/H"dB gB | "C"cA A>B |
"G"dB gB | "G/H"dB gB | "C"GB "D"AG/A/ | "G"BG G2 :|
